X:1
T:Confidence, 88.88.8
T:Confidence, 88.88.8
T:William Youens (1834-1911)
T:Public Domain Courtesy of the Cyber Hymnal™
C:William Youens (1834-1911)
Z:Public Domain
Z:Courtesy of the Cyber Hymnal™
%%score ( 1 2 ) ( 3 4 )
L:1/8
Q:1/4=115
M:3/4
K:F
V:1 treble 
V:2 treble 
V:3 bass 
V:4 bass 
V:1
 [CF]2 | [FA]4 [FB]2 | (cA [DF]2) [EG]2 | [FA]4 [EB]2 | [Fc]4 [Fc]2 | (c2 B2) [GB]2 | %6
 ([GB]2 [FA]2) [CA]2 | (A2 G2) [FG]2 | [EG]4 [CF]2 | [FA]4 B2 | ([Cc][FA] [FA]2) [EG]2 | %11
 [FA]4 [EB]2 | [Fc]4 [Fc]2 | (f2 e2) [Fd]2 | (d2 c2) [FA]2 | c2 [DB]2 [EG]2 | AB c2 [Ac]2 | %17
 (f2 e2) [Fd]2 | (d2 c2) [FA]2 | c2 [DB]2 [EG]2 x2 | F4 |] %21
V:2
 x2 | x6 | F2 x4 | x6 | x6 | G4 x2 | x6 | D4 x2 | x6 | x4 (ED) | x6 | x6 | x6 | F4 x2 | F4 x2 | %15
 FE x4 | F4 x2 | F4 x2 | F4 x2 | FE x6 | F4 |] %21
V:3
 [F,A,]2 | [F,C]2 [D,D]2 [B,,D]2 | ([A,,C]2 [D,A,]2) [C,C]2 | [F,C]4 [G,C]2 | [A,C]4 [F,A,]2 | %5
 [E,C]4 [E,C]2 | [F,C]4 [A,,F,]2 | (F,2 G,2) [=B,,D]2 | [C,C]4 [F,A,]2 | [F,C]4 [G,B,]2 | %10
 A,4 [C,C]2 | [F,C]4 [G,C]2 | [A,C]4 [F,A,]2 | (D2 C2) [F,B,]2 | (B,2 A,2) [F,C]2 | %15
 ([A,,C]2 [B,,G,]2) [C,C]2 | (CB, A,2) (C_E) | (D2 C2) [F,B,]2 | (B,2 A,2) [F,C]2 | %19
 ([A,,C]2 F,D) (CB,) x2 | [F,A,]4 |] %21
V:4
 x2 | x6 | x6 | x6 | x6 | x6 | x6 | =B,,4 x2 | x6 | x6 | (A,2 D,2) x2 | x6 | x6 | F,4 x2 | F,4 x2 | %15
 x6 | F,4 F,2 | F,4 x2 | F,4 x2 | x2 B,,2 C,4 | x4 |] %21

